X:2897
T:Jack Come Kiss Me Now
O:england
C:Joseph Kershaw's Manuscript (Oldham)
N:Via Meic Goodyear
M:4/4
L:1/8
K:G
|:D2|G2GA B2AG|c2c2c2BA|G2GA BA G2|
d2d2d2D2|G2GA B2AG|cBcd e3d|efge fgaf|
g2g2g2:|
|:z2|g3a gfed|c2c2c4|a3b agfe|
d2d2d4|g3a gfed|cBcd e3d|efge fgaf|
g2g2g2:|


